Origami/64x64/apps/gpk-log.svg

<svg width="64" height="64" version="1" xmlns="http://www.w3.org/2000/svg">
 <path d="m4 56v2c0 1.662 1.338 3 3 3h50c1.662 0 3-1.338 3-3v-2c0 1.662-1.338 3-3 3h-50c-1.662 0-3-1.338-3-3z" style="opacity:.2"/>
 <rect transform="matrix(0,-1,-1,0,0,0)" x="-60" y="-60" width="56" height="56" rx="3" ry="3" style="fill:#fabd7f"/>
 <path d="m7 4c-1.662 0-3 1.338-3 3v1c0-1.662 1.338-3 3-3h50c1.662 0 3 1.338 3 3v-1c0-1.662-1.338-3-3-3h-50z" style="fill:#ffffff;opacity:.1"/>
 <path d="m29.144 12c-0.79144 0-1.134047 0.686818-1.144 1.53906v24.46074h-6.00048l10 14.0002 10-13.9998h-5.99952v-24.46074c0-0.8512-0.35528-1.538-1.14528-1.538z" style="fill:#3f3f3f"/>
 <rect transform="matrix(0,-1,-1,0,0,0)" x="-63" y="-64" width="28" height="28" rx="1.5" ry="1.5" style="opacity:.2"/>
 <rect transform="matrix(0,-1,-1,0,0,0)" x="-62" y="-64" width="28" height="28" rx="1.5" ry="1.5" style="fill:#cccccc"/>
 <path d="m41 39v4h18v-4zm0 7v4h18v-4zm0 7v4h18v-4z" style="fill:#3f3f3f"/>
</svg>

<svg xmlns="http://www.w3.org/2000/svg" width="64" height="64" version="1">
 <path style="opacity:0.2" d="m 4,56 0,2 c 0,1.662 1.338,3 3,3 l 50,0 c 1.662,0 3,-1.338 3,-3 l 0,-2 c 0,1.662 -1.338,3 -3,3 L 7,59 C 5.338,59 4,57.662 4,56 Z"/>
 <rect style="fill:#fabd7f" width="56" height="56" x="-60" y="-60" rx="3" ry="3" transform="matrix(0,-1,-1,0,0,0)"/>
 <path style="opacity:0.1;fill:#ffffff" d="M 7 4 C 5.338 4 4 5.338 4 7 L 4 8 C 4 6.338 5.338 5 7 5 L 57 5 C 58.662 5 60 6.338 60 8 L 60 7 C 60 5.338 58.662 4 57 4 L 7 4 z"/>
 <path style="fill:#3f3f3f" d="M 29.144,12 C 28.35256,12 28.009953,12.686818 28,13.53906 l 0,24.46074 -6.00048,0 10,14.0002 10,-13.9998 -5.99952,0 0,-24.46074 c 0,-0.8512 -0.35528,-1.538 -1.14528,-1.538 z"/>
 <rect style="opacity:0.2" width="28" height="28" x="-63" y="-64" rx="1.5" ry="1.5" transform="matrix(0,-1,-1,0,0,0)"/>
 <rect style="fill:#cccccc" width="28" height="28" x="-62" y="-64" rx="1.5" ry="1.5" transform="matrix(0,-1,-1,0,0,0)"/>
 <path style="fill:#3f3f3f" d="m 41,39 v 4 h 18 v -4 z m 0,7 v 4 h 18 v -4 z m 0,7 v 4 h 18 v -4 z"/>
</svg>
